X:1
T:Title
%%score { 1 | ( 2 3 ) }
L:1/8
Q:1/4=100
M:4/4
K:Db
V:1 treble nm="Grand Piano"
V:2 bass 
V:3 bass 
V:1
 [FA]2 [Fd]2 [Fc]2 [FB]2 | [GA]>[GB] [GA]>[GB] A2 e2 | A>B A>B A2 e2 | %3
w: Percy~S.~Foster * * *|||
 [FA]>[FB] [FA]>[FB] [FA]2 [Fd]2 | [FA]2 [Fd]2 [Fc]2 [FB]2 | [GA]>[GB] [GA]>[GB] A2 e2 | %6
w: |||
 d2 c2 B2 c2 | [Fd]6 z2 | [GB]2 [Bd]2 [Ac]2 [GB]2 | [FA]3 [DF] [FA]2 z2 | %10
w: ||||
 [CA][CE][CF][CG] [CA]2 z2 | ADE_F =F2 z2 | B2 d2 [Ac]2 [GB]2 | [FA]3 [DF] [FA]2 z2 | %14
w: ||||
 [DB]2 [EB]2 [=Gc]2 [Gd]2 |[M:5/4] e4 A6 |[M:4/4] [FA]2 [Fd]2 [Fc]2 [FB]2 | %17
w: |||
 [GA]>[GB] [GA]>[GB] A2 e2 | A>B A>B A2 e2 | [FA]>[FB] [FA]>[FB] [FA]2 [Fd]2 | %20
w: |||
 [FA]2 [Fd]2 [Fc]2 [Fd]2 | e2 B2 e4 | d2 d>e d2 c2 | [Fd]6 z2 |] %24
w: ||||
V:2
 [D,D]2 [D,A,]2 [D,A,]2 [D,D]2 | [E,C]>[E,D] [E,C]>[E,D] [A,CG]2 [A,,A,CG]2 | %2
 [A,CG]>[A,DG] [A,CG]>[A,DG] [A,CG]2 [A,CG]2 | [D,D]>[D,D] [D,D]>[D,D] [D,D]2 [D,A,]2 | %4
 [D,D]2 [D,A,]2 [D,A,]2 [D,D]2 | [E,C]>[E,D] [E,C]>[E,D] [A,CG]2 [A,,A,CG]2 | %6
 [A,FA]2 [A,EG]2 [A,DG]2 [A,EG]2 | [D,A,D]6 z2 | [G,D]2 [G,D]2 [G,D]2 [G,D]2 | %9
 [D,D]3 [D,A,] [D,D]2 z2 | [A,,A,][A,,G,][A,,G,][A,,G,] [A,,G,]2 z2 | %11
 [D,F,D][D,F,][D,G,D][D,=G,D] [D,A,D]2 z2 | [G,D]2 [G,B,G]2 [G,D]2 [G,D]2 | %13
 [D,D]3 [D,A,] [D,D]2 z2 | [E,=G,]2 [E,G,]2 [E,D]2 [E,D]2 |[M:5/4][K:treble] G2- G2- G4- G3/2 z/ | %16
[M:4/4][K:bass] [D,D]2 [D,A,]2 [D,A,]2 [D,D]2 | [E,C]>[E,D] [E,C]>[E,D] [A,CG]2 [A,,A,CG]2 | %18
 [A,CG]>[A,DG] [A,CG]>[A,DG] [A,CG]2[K:bass] [A,,A,CG]2 | [D,D]>[D,D] [D,D]>[D,D] [D,D]2 [D,A,]2 | %20
 [D,D]2 [D,A,]2 [D,A,]2 [D,A,]2 | [G,B,G]2 [G,EG]2 [G,B,G]4 | [A,DF]2 [A,DF]2 [A,EG]2 [A,EG]2 | %23
 [D,D]6 z2 |] %24
V:3
 x8 | x8 | x8 | x8 | x8 | x8 | x8 | x8 | x8 | x8 | x8 | x8 | x8 | x8 | x8 | %15
[M:5/4][K:treble] [A,C]2- [A,C]2- [A,C]6 |[M:4/4][K:bass] x8 | x8 | x6[K:bass] x2 | x8 | x8 | x8 | %22
 x8 | x8 |] %24

